X:15002
T:Oh! Dear! What can the matter be?
R:Jig
C:Trad. - Variations by Tom Clough
O:England
Z:Paul Hardy's Possible Tunebook 2015 (see www.paulhardy.net). Creative Commons cc by-nc-sa licenced.
M:6/8
L:1/8
Q:3/8=80
K:G
d3 d3|dBg dBG|c3 c3|cAB cBA|d3 d3|dBg dBG|ABc BcA|G3 G2 d:|
dBc dBc|dBg dBG|cAB cAB|cAB cBA|dBc dBc|dBg dBG|ABc BcA|G3 G2 d:|
L:1/16
"Var I"
|:d2BcdB g2BcdB|d2BcdB edcBAG|c2ABcA a2ABcA|c2ABcA agfed^c|
d2BcdB g2BcdB|d2BcdB edcBAG|E2G2c2 B2c2A2|G6 G4 Bc:|
"Var II"
|:dcBcdB dcBcdB|d2B2g2 d2B2G2|cBABcA cBABcA|c2A2a2 g2f2e2|
dcBcdB dcBcdB|d2B2g2 d2B2G2|E2G2c2 B2c2A2|G6 G4 Bc:|
"Var III"
|:d2B2G2 D2G2B2|dGBdgd bagfed|e2c2A2 D2F2A2|FDFAdA agfed^c|
d2B2G2 D2G2B2|dGBdgd bagfed|E2G2c2 B2c2A2|G6 G4 Bc:|
L:1/8
"Var IV"
|:d2 b B2 g|GBd DGB|c2 a A2 c|DFA cBA|d2 b B2 g|GBd DGB|EGc BcA|G3 G2 B/c/:|
L:1/16
"Var V"
:|edcBAG edcBAG|BGBdgd bagfed|fedcBA fedcBA|FDFAdA agfed^c|
edcBAG edcBAG|BGBdgd bagfed|E2G2c2 B2c2A2|G6 G4 Bc:|
L:1/8
"Var VI"
|:d (3BdB e (3cec|d (3BdB BAG|c (3AcA a (3bag|f (3gfe d (3ed^c|
d (3BdB e (3cec|d (3BdB BAG|EGc BcA|[1 G3 G2 B/c/:|[2 G3 G3|]

